; G-Code generated by Simplify3D(R) Version 4.0.0
; Jul 9, 2018 at 5:11:52 PM
; Settings Summary
;   processName,Process1
;   applyToModels,60x60
;   profileName,Slab (modified)
;   profileVersion,2017-12-12 15:51:45
;   baseProfile,Default
;   printMaterial,PLA
;   printQuality,Medium
;   printExtruders,
;   extruderName,Extruder 1
;   extruderToolheadNumber,0
;   extruderDiameter,0.4
;   extruderAutoWidth,0
;   extruderWidth,0.4
;   extrusionMultiplier,0.9
;   extruderUseRetract,1
;   extruderRetractionDistance,1
;   extruderExtraRestartDistance,0
;   extruderRetractionZLift,0
;   extruderRetractionSpeed,1800
;   extruderUseCoasting,0
;   extruderCoastingDistance,0.2
;   extruderUseWipe,0
;   extruderWipeDistance,5
;   primaryExtruder,0
;   layerHeight,0.2
;   topSolidLayers,3
;   bottomSolidLayers,3
;   perimeterOutlines,1
;   printPerimetersInsideOut,1
;   startPointOption,2
;   startPointOriginX,0
;   startPointOriginY,0
;   sequentialIslands,0
;   spiralVaseMode,0
;   firstLayerHeightPercentage,90
;   firstLayerWidthPercentage,100
;   firstLayerUnderspeed,0.5
;   useRaft,1
;   raftExtruder,0
;   raftTopLayers,3
;   raftBaseLayers,2
;   raftOffset,3
;   raftSeparationDistance,0.14
;   raftTopInfill,100
;   aboveRaftSpeedMultiplier,0.3
;   useSkirt,1
;   skirtExtruder,0
;   skirtLayers,1
;   skirtOutlines,2
;   skirtOffset,4
;   usePrimePillar,0
;   primePillarExtruder,999
;   primePillarWidth,12
;   primePillarLocation,7
;   primePillarSpeedMultiplier,1
;   useOozeShield,0
;   oozeShieldExtruder,999
;   oozeShieldOffset,2
;   oozeShieldOutlines,1
;   oozeShieldSidewallShape,1
;   oozeShieldSidewallAngle,30
;   oozeShieldSpeedMultiplier,1
;   infillExtruder,0
;   internalInfillPattern,Rectilinear
;   externalInfillPattern,Rectilinear
;   infillPercentage,0
;   outlineOverlapPercentage,15
;   infillExtrusionWidthPercentage,100
;   minInfillLength,5
;   infillLayerInterval,1
;   internalInfillAngles,45,-45
;   overlapInternalInfillAngles,0
;   externalInfillAngles,45,-45
;   generateSupport,1
;   supportExtruder,0
;   supportInfillPercentage,30
;   supportExtraInflation,0
;   supportBaseLayers,0
;   denseSupportExtruder,0
;   denseSupportLayers,0
;   denseSupportInfillPercentage,70
;   supportLayerInterval,1
;   supportHorizontalPartOffset,0.3
;   supportUpperSeparationLayers,1
;   supportLowerSeparationLayers,1
;   supportType,0
;   supportGridSpacing,4
;   maxOverhangAngle,45
;   supportAngles,0
;   temperatureName,Extruder 1,Heated Bed
;   temperatureNumber,0,0
;   temperatureSetpointCount,1,1
;   temperatureSetpointLayers,1,1
;   temperatureSetpointTemperatures,190,60
;   temperatureStabilizeAtStartup,1,1
;   temperatureHeatedBed,0,1
;   temperatureRelayBetweenLayers,0,0
;   temperatureRelayBetweenLoops,0,0
;   fanLayers,1,2
;   fanSpeeds,0,100
;   blipFanToFullPower,0
;   adjustSpeedForCooling,1
;   minSpeedLayerTime,15
;   minCoolingSpeedSlowdown,20
;   increaseFanForCooling,0
;   minFanLayerTime,45
;   maxCoolingFanSpeed,100
;   increaseFanForBridging,0
;   bridgingFanSpeed,100
;   use5D,1
;   relativeEdistances,0
;   allowEaxisZeroing,1
;   independentExtruderAxes,0
;   includeM10123,0
;   stickySupport,1
;   applyToolheadOffsets,0
;   gcodeXoffset,0
;   gcodeYoffset,0
;   gcodeZoffset,0
;   overrideMachineDefinition,1
;   machineTypeOverride,0
;   strokeXoverride,215
;   strokeYoverride,200
;   strokeZoverride,409
;   originOffsetXoverride,0
;   originOffsetYoverride,0
;   originOffsetZoverride,0
;   homeXdirOverride,-1
;   homeYdirOverride,-1
;   homeZdirOverride,-1
;   flipXoverride,1
;   flipYoverride,-1
;   flipZoverride,1
;   toolheadOffsets,0,0|0,0|0,0|0,0|0,0|0,0
;   overrideFirmwareConfiguration,1
;   firmwareTypeOverride,RepRap (Marlin/Repetier/Sprinter)
;   GPXconfigOverride,r2
;   baudRateOverride,115200
;   overridePrinterModels,0
;   printerModelsOverride
;   startingGcode,G28 ; home all axes
;   layerChangeGcode,
;   retractionGcode,
;   toolChangeGcode,
;   endingGcode,M104 S0 ; turn off extruder,M140 S0 ; turn off bed,M84 ; disable motors
;   exportFileFormat,gcode
;   celebration,0
;   celebrationSong,Random Song
;   postProcessing,
;   defaultSpeed,3600
;   outlineUnderspeed,0.5
;   solidInfillUnderspeed,0.8
;   supportUnderspeed,0.8
;   rapidXYspeed,4800
;   rapidZspeed,1000
;   minBridgingArea,50
;   bridgingExtraInflation,0
;   bridgingExtrusionMultiplier,1
;   bridgingSpeedMultiplier,1
;   useFixedBridgingAngle,0
;   fixedBridgingAngle,0
;   applyBridgingToPerimeters,0
;   filamentDiameters,1.75|1.75|1.75|1.75|1.75|1.75
;   filamentPricesPerKg,46|46|46|46|46|46
;   filamentDensities,1.25|1.25|1.25|1.25|1.25|1.25
;   useMinPrintHeight,0
;   minPrintHeight,0
;   useMaxPrintHeight,0
;   maxPrintHeight,0
;   useDiaphragm,0
;   diaphragmLayerInterval,20
;   robustSlicing,1
;   mergeAllIntoSolid,0
;   onlyRetractWhenCrossingOutline,1
;   retractBetweenLayers,1
;   useRetractionMinTravel,0
;   retractionMinTravel,3
;   retractWhileWiping,0
;   onlyWipeOutlines,1
;   avoidCrossingOutline,0
;   maxMovementDetourFactor,3
;   toolChangeRetractionDistance,12
;   toolChangeExtraRestartDistance,-0.5
;   toolChangeRetractionSpeed,600
;   externalThinWallType,0
;   internalThinWallType,2
;   thinWallAllowedOverlapPercentage,10
;   singleExtrusionMinLength,1
;   singleExtrusionMinPrintingWidthPercentage,50
;   singleExtrusionMaxPrintingWidthPercentage,200
;   singleExtrusionEndpointExtension,0.2
;   horizontalSizeCompensation,0
G90
M82
M106 S0
M140 S60
M190 S60
M104 S190 T0
M109 S190 T0
G28 ; home all axes
G92 E0
G1 E-1.0000 F1800
G1 Z0.450 F1000
; process Process1
; layer 1, Z = 0.450
T0
; tool H0.500 W0.400
; skirt
G1 X69.991 Y66.761 F4800
G1 E0.0000 F540
G92 E0
G1 X74.261 Y62.491 E0.4518 F1800
G1 X74.481 Y62.400 E0.4697
G1 X140.519 Y62.400 E5.4116
G1 X140.739 Y62.491 E5.4295
G1 X145.009 Y66.761 E5.8813
G1 X145.100 Y66.981 E5.8992
G1 X145.100 Y133.019 E10.8412
G1 X145.009 Y133.239 E10.8590
G1 X140.739 Y137.509 E11.3108
G1 X140.519 Y137.600 E11.3287
G1 X74.481 Y137.600 E16.2707
G1 X74.261 Y137.509 E16.2885
G1 X69.991 Y133.239 E16.7404
G1 X69.900 Y133.019 E16.7582
G1 X69.900 Y66.981 E21.7002
G1 X69.991 Y66.761 E21.7180
G92 E0
G1 E-1.0000 F1800
G1 X70.330 Y66.987 F4800
G1 E0.0000 F1800
G92 E0
G1 X74.487 Y62.830 E0.4399 F1800
G1 X74.561 Y62.800 E0.4459
G1 X140.439 Y62.800 E5.3759
G1 X140.513 Y62.830 E5.3819
G1 X144.670 Y66.987 E5.8218
G1 X144.700 Y67.061 E5.8278
G1 X144.700 Y132.939 E10.7578
G1 X144.670 Y133.013 E10.7637
G1 X140.513 Y137.170 E11.2037
G1 X140.439 Y137.200 E11.2096
G1 X74.561 Y137.200 E16.1397
G1 X74.487 Y137.170 E16.1456
G1 X70.330 Y133.013 E16.5855
G1 X70.300 Y132.939 E16.5915
G1 X70.300 Y67.061 E21.5215
G1 X70.330 Y66.987 E21.5275
G92 E0
G1 E-1.0000 F1800
; tool H0.500 W0.800
; raft
G1 X74.900 Y68.923 F4800
G1 E0.0000 F1800
G92 E0
G1 X76.423 Y67.400 E0.3224 F450
G1 X138.577 Y67.400 E9.6250
G1 X140.100 Y68.923 E9.9474
G1 X140.100 Y131.077 E19.2500
G1 X138.577 Y132.600 E19.5724
G1 X76.423 Y132.600 E28.8750
G1 X74.900 Y131.077 E29.1973
G1 X74.900 Y68.923 E38.5000
G92 E0
G1 E-1.0000 F1800
G1 X75.700 Y70.286 F4800
G1 E0.0000 F1800
G92 E0
G1 X139.300 Y70.286 E9.5191 F450
G1 X139.300 Y72.571 E9.8612
G1 X75.700 Y72.571 E19.3802
G1 X75.700 Y74.857 E19.7223
G1 X139.300 Y74.857 E29.2414
G1 X139.300 Y77.143 E29.5835
G1 X75.700 Y77.143 E39.1025
G1 X75.700 Y79.429 E39.4446
G1 X139.300 Y79.429 E48.9637
G1 X139.300 Y81.714 E49.3058
G1 X75.700 Y81.714 E58.8248
G1 X75.700 Y84.000 E59.1669
G1 X139.300 Y84.000 E68.6860
G1 X139.300 Y86.286 E69.0281
G1 X75.700 Y86.286 E78.5471
G1 X75.700 Y88.571 E78.8892
G1 X139.300 Y88.571 E88.4083
G1 X139.300 Y90.857 E88.7504
G1 X75.700 Y90.857 E98.2694
G1 X75.700 Y93.143 E98.6115
G1 X139.300 Y93.143 E108.1306
G1 X139.300 Y95.429 E108.4727
G1 X75.700 Y95.429 E117.9918
G1 X75.700 Y97.714 E118.3339
G1 X139.300 Y97.714 E127.8529
G1 X139.300 Y100.000 E128.1950
G1 X75.700 Y100.000 E137.7141
G1 X75.700 Y102.286 E138.0562
G1 X139.300 Y102.286 E147.5752
G1 X139.300 Y104.571 E147.9173
G1 X75.700 Y104.571 E157.4364
G1 X75.700 Y106.857 E157.7785
G1 X139.300 Y106.857 E167.2975
G1 X139.300 Y109.143 E167.6396
G1 X75.700 Y109.143 E177.1587
G1 X75.700 Y111.429 E177.5008
G1 X139.300 Y111.429 E187.0198
G1 X139.300 Y113.714 E187.3619
G1 X75.700 Y113.714 E196.8810
G1 X75.700 Y116.000 E197.2231
G1 X139.300 Y116.000 E206.7421
G1 X139.300 Y118.286 E207.0843
G1 X75.700 Y118.286 E216.6033
G1 X75.700 Y120.571 E216.9454
G1 X139.300 Y120.571 E226.4645
G1 X139.300 Y122.857 E226.8066
G1 X75.700 Y122.857 E236.3256
G1 X75.700 Y125.143 E236.6677
G1 X139.300 Y125.143 E246.1868
G1 X139.300 Y127.429 E246.5289
G1 X75.700 Y127.429 E256.0479
G1 X75.700 Y129.714 E256.3900
G1 X139.300 Y129.714 E265.9091
G92 E0
G1 E-1.0000 F1800
; layer 2, Z = 0.950
M106 S255
G1 X140.100 Y131.077 F4800
G1 Z0.950 F1000
G1 E0.0000 F1800
G92 E0
G1 X138.577 Y132.600 E0.3224 F900
G1 X76.423 Y132.600 E9.6250
G1 X74.900 Y131.077 E9.9474
G1 X74.900 Y68.923 E19.2500
G1 X76.423 Y67.400 E19.5724
G1 X138.577 Y67.400 E28.8750
G1 X140.100 Y68.923 E29.1973
G1 X140.100 Y131.077 E38.5000
G92 E0
G1 E-1.0000 F1800
G1 X139.300 Y129.714 F4800
G1 E0.0000 F1800
G92 E0
G1 X75.700 Y129.714 E9.5191 F900
G1 X75.700 Y127.429 E9.8612
G1 X139.300 Y127.429 E19.3802
G1 X139.300 Y125.143 E19.7223
G1 X75.700 Y125.143 E29.2414
G1 X75.700 Y122.857 E29.5835
G1 X139.300 Y122.857 E39.1025
G1 X139.300 Y120.571 E39.4446
G1 X75.700 Y120.571 E48.9637
G1 X75.700 Y118.286 E49.3058
G1 X139.300 Y118.286 E58.8248
G1 X139.300 Y116.000 E59.1669
G1 X75.700 Y116.000 E68.6860
G1 X75.700 Y113.714 E69.0281
G1 X139.300 Y113.714 E78.5471
G1 X139.300 Y111.429 E78.8892
G1 X75.700 Y111.429 E88.4083
G1 X75.700 Y109.143 E88.7504
G1 X139.300 Y109.143 E98.2694
G1 X139.300 Y106.857 E98.6115
G1 X75.700 Y106.857 E108.1306
G1 X75.700 Y104.571 E108.4727
G1 X139.300 Y104.571 E117.9918
G1 X139.300 Y102.286 E118.3339
G1 X75.700 Y102.286 E127.8529
G1 X75.700 Y100.000 E128.1950
G1 X139.300 Y100.000 E137.7141
G1 X139.300 Y97.714 E138.0562
G1 X75.700 Y97.714 E147.5752
G1 X75.700 Y95.429 E147.9173
G1 X139.300 Y95.429 E157.4364
G1 X139.300 Y93.143 E157.7785
G1 X75.700 Y93.143 E167.2975
G1 X75.700 Y90.857 E167.6396
G1 X139.300 Y90.857 E177.1587
G1 X139.300 Y88.571 E177.5008
G1 X75.700 Y88.571 E187.0198
G1 X75.700 Y86.286 E187.3619
G1 X139.300 Y86.286 E196.8810
G1 X139.300 Y84.000 E197.2231
G1 X75.700 Y84.000 E206.7421
G1 X75.700 Y81.714 E207.0843
G1 X139.300 Y81.714 E216.6033
G1 X139.300 Y79.429 E216.9454
G1 X75.700 Y79.429 E226.4645
G1 X75.700 Y77.143 E226.8066
G1 X139.300 Y77.143 E236.3256
G1 X139.300 Y74.857 E236.6677
G1 X75.700 Y74.857 E246.1868
G1 X75.700 Y72.571 E246.5289
G1 X139.300 Y72.571 E256.0479
G1 X139.300 Y70.286 E256.3900
G1 X75.700 Y70.286 E265.9091
G92 E0
G1 E-1.0000 F1800
; layer 3, Z = 1.172
; tool H0.222 W0.400
G1 X74.700 Y68.878 F4800
G1 Z1.172 F1000
G1 E0.0000 F1800
G92 E0
G1 X76.378 Y67.200 E0.0789 F2700
G1 X76.943 Y67.200 E0.0977
G1 X74.700 Y69.443 E0.2032
G1 X74.700 Y70.009 E0.2221
G1 X77.509 Y67.200 E0.3542
G1 X78.075 Y67.200 E0.3730
G1 X74.700 Y70.575 E0.5317
G1 X74.700 Y71.140 E0.5505
G1 X78.640 Y67.200 E0.7359
G1 X79.206 Y67.200 E0.7547
G1 X74.700 Y71.706 E0.9666
G1 X74.700 Y72.272 E0.9855
G1 X79.772 Y67.200 E1.2240
G1 X80.337 Y67.200 E1.2428
G1 X74.700 Y72.837 E1.5080
G1 X74.700 Y73.403 E1.5268
G1 X80.903 Y67.200 E1.8186
G1 X81.469 Y67.200 E1.8374
G1 X74.700 Y73.969 E2.1558
G1 X74.700 Y74.534 E2.1746
G1 X82.034 Y67.200 E2.5196
G1 X82.600 Y67.200 E2.5384
G1 X74.700 Y75.100 E2.9100
G1 X74.700 Y75.666 E2.9288
G1 X83.166 Y67.200 E3.3270
G1 X83.731 Y67.200 E3.3458
G1 X74.700 Y76.231 E3.7706
G1 X74.700 Y76.797 E3.7895
G1 X84.297 Y67.200 E4.2409
G1 X84.863 Y67.200 E4.2597
G1 X74.700 Y77.363 E4.7377
G1 X74.700 Y77.929 E4.7565
G1 X85.429 Y67.200 E5.2612
G1 X85.994 Y67.200 E5.2800
G1 X74.700 Y78.494 E5.8112
G1 X74.700 Y79.060 E5.8301
G1 X86.560 Y67.200 E6.3879
G1 X87.126 Y67.200 E6.4067
G1 X74.700 Y79.626 E6.9912
G1 X74.700 Y80.191 E7.0100
G1 X87.691 Y67.200 E7.6211
G1 X88.257 Y67.200 E7.6399
G1 X74.700 Y80.757 E8.2776
G1 X74.700 Y81.323 E8.2964
G1 X88.823 Y67.200 E8.9607
G1 X89.388 Y67.200 E8.9795
G1 X74.700 Y81.888 E9.6704
G1 X74.700 Y82.454 E9.6892
G1 X89.954 Y67.200 E10.4067
G1 X90.520 Y67.200 E10.4255
G1 X74.700 Y83.020 E11.1696
G1 X74.700 Y83.585 E11.1884
G1 X91.085 Y67.200 E11.9592
G1 X91.651 Y67.200 E11.9780
G1 X74.700 Y84.151 E12.7753
G1 X74.700 Y84.717 E12.7941
G1 X92.217 Y67.200 E13.6180
G1 X92.782 Y67.200 E13.6369
G1 X74.700 Y85.282 E14.4874
G1 X74.700 Y85.848 E14.5062
G1 X93.348 Y67.200 E15.3834
G1 X93.914 Y67.200 E15.4022
G1 X74.700 Y86.414 E16.3059
G1 X74.700 Y86.980 E16.3248
G1 X94.480 Y67.200 E17.2551
G1 X95.045 Y67.200 E17.2739
G1 X74.700 Y87.545 E18.2309
G1 X74.700 Y88.111 E18.2497
G1 X95.611 Y67.200 E19.2333
G1 X96.177 Y67.200 E19.2521
G1 X74.700 Y88.677 E20.2623
G1 X74.700 Y89.242 E20.2811
G1 X96.742 Y67.200 E21.3179
G1 X97.308 Y67.200 E21.3368
G1 X74.700 Y89.808 E22.4002
G1 X74.700 Y90.374 E22.4190
G1 X97.874 Y67.200 E23.5090
G1 X98.439 Y67.200 E23.5278
G1 X74.700 Y90.939 E24.6444
G1 X74.700 Y91.505 E24.6632
G1 X99.005 Y67.200 E25.8065
G1 X99.571 Y67.200 E25.8253
G1 X74.700 Y92.071 E26.9951
G1 X74.700 Y92.636 E27.0139
G1 X100.136 Y67.200 E28.2104
G1 X100.702 Y67.200 E28.2292
G1 X74.700 Y93.202 E29.4523
G1 X74.700 Y93.768 E29.4711
G1 X101.268 Y67.200 E30.7207
G1 X101.833 Y67.200 E30.7396
G1 X74.700 Y94.333 E32.0158
G1 X74.700 Y94.899 E32.0346
G1 X102.399 Y67.200 E33.3375
G1 X102.965 Y67.200 E33.3563
G1 X74.700 Y95.465 E34.6858
G1 X74.700 Y96.030 E34.7046
G1 X103.530 Y67.200 E36.0607
G1 X104.096 Y67.200 E36.0796
G1 X74.700 Y96.596 E37.4623
G1 X74.700 Y97.162 E37.4811
G1 X104.662 Y67.200 E38.8904
G1 X105.228 Y67.200 E38.9092
G1 X74.700 Y97.728 E40.3451
G1 X74.700 Y98.293 E40.3639
G1 X105.793 Y67.200 E41.8265
G1 X106.359 Y67.200 E41.8453
G1 X74.700 Y98.859 E43.3344
G1 X74.700 Y99.425 E43.3532
G1 X106.925 Y67.200 E44.8690
G1 X107.490 Y67.200 E44.8878
G1 X74.700 Y99.990 E46.4302
G1 X74.700 Y100.556 E46.4490
G1 X108.056 Y67.200 E48.0179
G1 X108.622 Y67.200 E48.0368
G1 X74.700 Y101.122 E49.6323
G1 X74.700 Y101.687 E49.6511
G1 X109.187 Y67.200 E51.2733
G1 X109.753 Y67.200 E51.2921
G1 X74.700 Y102.253 E52.9409
G1 X74.700 Y102.819 E52.9597
G1 X110.319 Y67.200 E54.6351
G1 X110.884 Y67.200 E54.6539
G1 X74.700 Y103.384 E56.3559
G1 X74.700 Y103.950 E56.3748
G1 X111.450 Y67.200 E58.1034
G1 X112.016 Y67.200 E58.1222
G1 X74.700 Y104.516 E59.8774
G1 X74.700 Y105.081 E59.8962
G1 X112.581 Y67.200 E61.6780
G1 X113.147 Y67.200 E61.6969
G1 X74.700 Y105.647 E63.5053
G1 X74.700 Y106.213 E63.5241
G1 X113.713 Y67.200 E65.3592
G1 X114.279 Y67.200 E65.3780
G1 X74.700 Y106.779 E67.2396
G1 X74.700 Y107.344 E67.2584
G1 X114.844 Y67.200 E69.1467
G1 X115.410 Y67.200 E69.1655
G1 X74.700 Y107.910 E71.0804
G1 X74.700 Y108.476 E71.0992
G1 X115.976 Y67.200 E73.0407
G1 X116.541 Y67.200 E73.0595
G1 X74.700 Y109.041 E75.0276
G1 X74.700 Y109.607 E75.0464
G1 X117.107 Y67.200 E77.0411
G1 X117.673 Y67.200 E77.0599
G1 X74.700 Y110.173 E79.0812
G1 X74.700 Y110.738 E79.1000
G1 X118.238 Y67.200 E81.1479
G1 X118.804 Y67.200 E81.1667
G1 X74.700 Y111.304 E83.2412
G1 X74.700 Y111.870 E83.2601
G1 X119.370 Y67.200 E85.3612
G1 X119.935 Y67.200 E85.3800
G1 X74.700 Y112.435 E87.5077
G1 X74.700 Y113.001 E87.5265
G1 X120.501 Y67.200 E89.6809
G1 X121.067 Y67.200 E89.6997
G1 X74.700 Y113.567 E91.8806
G1 X74.700 Y114.132 E91.8995
G1 X121.632 Y67.200 E94.1070
G1 X122.198 Y67.200 E94.1258
G1 X74.700 Y114.698 E96.3600
G1 X74.700 Y115.264 E96.3788
